openmetadata-ui/src/main/resources/ui/src/assets/svg/exit-full-screen.svg

<svg width="16" height="16" viewBox="0 0 16 16" fill="none" xmlns="http://www.w3.org/2000/svg">
<path d="M2.85962 13.1405C3.00587 13.2867 3.24362 13.2867 3.38987 13.1405L5.75012 10.7803L5.75012 12.875C5.75012 13.082 5.91812 13.25 6.12512 13.25C6.33212 13.25 6.50012 13.082 6.50012 12.875L6.50012 9.87498C6.50012 9.82628 6.49037 9.77749 6.47087 9.73179C6.43337 9.64029 6.35987 9.56679 6.26762 9.52849C6.22262 9.51049 6.17387 9.49998 6.12512 9.49998L3.12512 9.49998C2.91812 9.49998 2.75012 9.66798 2.75012 9.87498C2.75012 10.082 2.91812 10.25 3.12512 10.25L5.21987 10.25L2.86037 12.6095C2.71337 12.7565 2.71337 12.9935 2.85962 13.1405Z" fill="#7147E8" stroke="#7147E8" stroke-width="0.3"/>
<path d="M9.7318 6.4715C9.7775 6.4895 9.8263 6.5 9.875 6.5L12.875 6.5C13.082 6.5 13.25 6.332 13.25 6.125C13.25 5.918 13.082 5.75 12.875 5.75L10.7803 5.75L13.1397 3.3905C13.286 3.24425 13.286 3.0065 13.1397 2.86025C13.067 2.78675 12.971 2.75 12.875 2.75C12.779 2.75 12.683 2.78675 12.6095 2.8595L10.25 5.21975L10.25 3.125C10.25 2.918 10.082 2.75 9.875 2.75C9.668 2.75 9.5 2.918 9.5 3.125L9.5 6.125C9.5 6.17375 9.5097 6.2225 9.5292 6.26825C9.5667 6.35975 9.6403 6.43325 9.7318 6.4715Z" fill="#7147E8" stroke="#7147E8" stroke-width="0.3"/>
<path d="M13.625 0.5H2.375C1.3415 0.5 0.5 1.34075 0.5 2.375V13.625C0.5 14.6592 1.3415 15.5 2.375 15.5H13.625C14.6585 15.5 15.5 14.6592 15.5 13.625V2.375C15.5 1.34075 14.6585 0.5 13.625 0.5ZM14.75 13.625C14.75 14.2453 14.2453 14.75 13.625 14.75H2.375C1.75475 14.75 1.25 14.2453 1.25 13.625V2.375C1.25 1.75475 1.75475 1.25 2.375 1.25H13.625C14.2453 1.25 14.75 1.75475 14.75 2.375V13.625Z" fill="#7147E8" stroke="#7147E8" stroke-width="0.3"/>
</svg>

<svg xmlns="http://www.w3.org/2000/svg" width="16" height="16" fill="none"><path fill="#7147E8" stroke="#7147E8" stroke-width=".3" d="M2.86 13.14a.375.375 0 0 0 .53 0l2.36-2.36v2.095a.375.375 0 0 0 .75 0v-3a.375.375 0 0 0-.375-.375h-3a.375.375 0 0 0 0 .75H5.22l-2.36 2.36a.375.375 0 0 0 0 .53ZM9.732 6.471a.393.393 0 0 0 .143.029h3a.375.375 0 0 0 0-.75H10.78l2.36-2.36a.375.375 0 0 0-.53-.53l-2.36 2.36V3.125a.375.375 0 0 0-.75 0v3a.376.376 0 0 0 .232.346Z"/><path fill="#7147E8" stroke="#7147E8" stroke-width=".3" d="M13.625.5H2.375C1.341.5.5 1.34.5 2.375v11.25c0 1.034.841 1.875 1.875 1.875h11.25c1.034 0 1.875-.84 1.875-1.875V2.375A1.877 1.877 0 0 0 13.625.5Zm1.125 13.125c0 .62-.505 1.125-1.125 1.125H2.375c-.62 0-1.125-.505-1.125-1.125V2.375c0-.62.505-1.125 1.125-1.125h11.25c.62 0 1.125.505 1.125 1.125v11.25Z"/></svg>
